X:1
T:Quickly Coming
T:Quickly Coming
T:Scott Werdebaugh, 2018
T:Martin Wells Knapp (1853-1901)
T:© 2018 Scott Werdebaugh &amp; New Heart Music - Copy &amp; use freely for Christian worship or devotions. All other rights reserved.
T:© 2018 Scott Werdebaugh &amp; New Heart Music - Copy &amp; use freely for Christian worship or devotions. All other rights reserved.
C:Scott Werdebaugh, 2018
Z:© 2018 Scott Werdebaugh & New Heart Music - Copy & use freely for Christian
Z:worship or devotions. All other rights reserved.
%%score ( 1 2 ) ( 3 4 )
L:1/8
Q:1/4=120
M:4/4
K:C
V:1 treble 
V:2 treble 
V:3 bass 
V:4 bass 
V:1
"^In joyful anticipation" [G,C]4 [CE]2 [EG]2 | [Ec]3 [Fd] [Ge]2 [Fd]2 | [Ec]4 z2 [DB]2 | %3
w: 1.~Soon skies will|rend and Christ de-|scend, And|
w: 2.~We then shall|rise, and in the|skies, With|
w: 3.~And when at|last the rap- ture|past, And|
w: 4.~Then Christ will|reign and His do-|main, From|
w: 5.~If you would|share His king- dom|fair Be|
 [Ec]2 [DB]2 [CA]2 [EG]2 | (A3 F) [CE]3 [EG] | [FA]2 [DB]2 [Ec]2 [DB]2 | [Ec]2 [CA]2 [DB]2 [EG]2 | %7
w: ev'- ry eye be-|hold * Him, While|an- gels bright in|clouds of light, In|
w: heav’n- ly bliss and|glo- * ry, The|graves shall quake, and|cof- fins break, And|
w: mar- riage feast is|end- * ed, Then|wars will cease and|per- fect peace O’er|
w: land to sea be|giv- * en, Oh,|now a- wake! your|sins for- sake, Re-|
w: read- y, now He|calls * you, Too|late, too late, if|long you wait, His|
 [Ec]3 [DB] [Ec]2 [DB]2 | ([CA]2 [DB]2) [Ec]3 z | [Ec]4 [Ec]2 [DB]2 | [CA]2 [DG]2 [CA]3 [DF] | %11
w: ma- jes- ty en-|fold * Him;|His trum- pet|sound will soon re-|
w: saints a- rise to|meet * Him;|Be- hold His|face, oh won- drous|
w: all the world pre-|vail- * ing,|The brid- al|train re- turns a-|
w: pent, ’tis now or|nev- * er!|His king- dom|come, and will be|
w: com- ing is im-|pend- * ing,|Oh to Him|fly, while He is|
 [CE]3 [DG] [CA]2 [DB]2 | [Ec]2 [DB]2 [CA]4 | [EG]4 z2 [DB]2 | [EG]2 [CF]2 [CE]2 [EG]2 | %15
w: sound, Thro’ earth and|Heav- en ring-|ing, His|dead will wake, His|
w: grace! And sing the|old, old stor-|y. When|by and by the|
w: gain, By heav’n- ly|hosts de- fend-|ed; And|right- eous- ness the|
w: done, On earth as|’tis in Heav-|en. Oh|trust His grace, the|
w: nigh, Be- fore His|wrath be- falls|you; Like|light- ning flash, and|
 [CA]2 [DB]2 [Ec]3 [Fd] | [Ge]2 [Fd]2 [Ge]2 [Ec]2 | d4 !fermata![Ec]4 || %18
w: bride He’ll take, To|mar- riage sup- per|bring- ing.|
w: sods will fly, As|we as- cend to|greet Him.|
w: world shall bless, With|not one prom- ise|fail- ing.|
w: cross em- brace, Or|you are lost for-|ev- er.|
w: thun- der crash, He|soon will be de-|scend- ing.|
"^Refrai" ([EG]2 [DF]2) [CE]4 | [CA]3 [DB] [Ec]3 [CA] | [EG]6 z2 | [Ec]2 [DB]2 [CA]2 [EG]2 | %22
w: ||||
w: ||||
w: Je- * sus,|Lamb for sin- ners|slain,|Oh how sweet the|
w: ||||
w: ||||
 [FA]3 [DB] [Ec]4 | [Ec]2 [DB]2 [CA]2 [EG]2 | [FA]3 [CF] [CE]4 | [EG]2 [EG]2 [FA]2 [Ec]2 | %26
w: ||||
w: ||||
w: glad re- frain,|Com- ing soon as|king to reign,|Quick- ly come, Lord|
w: ||||
w: ||||
 ([Fd]4 [Fc]4) | [Ec]6 z2"^Play 5 times" :| %28
w: ||
w: ||
w: Je- *|sus!|
w: ||
w: ||
V:2
 x8 | x8 | x8 | x8 | C4 x4 | x8 | x8 | x8 | x8 | x8 | x8 | x8 | x8 | x8 | x8 | x8 | x8 | %17
 (G2 F2) x4 || x8 | x8 | x8 | x8 | x8 | x8 | x8 | x8 | x8 | x8 :| %28
V:3
 [C,E,]4 [C,G,]2 [C,C]2 | [C,G,]3 [G,B,] [C,C]2 [G,B,]2 | [C,G,]4 z2 [G,,G,]2 | %3
 [C,G,]2 [G,,G,]2 [F,,F,]2 [C,C]2 | [F,,F,]4 [C,G,]3 [C,C] | [F,C]2 [G,,G,]2 [C,G,]2 [G,,G,]2 | %6
 [C,G,]2 [F,,F,]2 [G,,G,]2 [C,C]2 | [C,G,]3 [G,,G,] [C,G,]2 [G,,G,]2 | %8
 ([F,,F,]2 [G,,G,]2) [C,G,]3 z | [C,G,]4 [C,G,]2 [G,,G,]2 | [F,,F,]2 [G,,B,]2 [F,,F,]3 [G,,B,] | %11
 [C,G,]3 [G,,G,] [F,,F,]2 [G,,G,]2 | [C,G,]2 [G,,G,]2 [F,,F,]4 | [C,C]4 z2 [G,,G,]2 | %14
 [C,C]2 [F,A,]2 [C,G,]2 [C,C]2 | [F,,F,]2 [G,,G,]2 [C,G,]3 [G,B,] | [C,C]2 [G,B,]2 [C,C]2 [C,G,]2 | %17
 (B,2 A,2) !fermata![C,G,]4 || ([C,C]2 [G,B,]2) [C,G,]4 | [F,,F,]3 [G,,G,] [C,G,]3 [F,,F,] | %20
 [C,C]6 z2 | [C,G,]2 [G,,G,]2 [G,,F,]2 [C,C]2 | [F,C]3 [G,,G,] [C,G,]4 | %23
 [C,G,]2 [G,,G,]2 [F,,F,]2 [C,C]2 | [F,C]3 [F,A,] [C,G,]4 | [C,C]2 [C,C]2 [F,C]2 [C,G,]2 | %26
 ([G,B,]4 [F,A,]4) | [C,G,]6 z2"^Play 5 times" :| %28
V:4
 x8 | x8 | x8 | x8 | x8 | x8 | x8 | x8 | x8 | x8 | x8 | x8 | x8 | x8 | x8 | x8 | x8 | G,4 x4 || %18
 x8 | x8 | x8 | x8 | x8 | x8 | x8 | x8 | x8 | x8 :| %28

